X:1
T:Title
%%score { 1 | 2 }
L:1/8
M:6/8
K:F
V:1 treble nm="Grand Piano"
V:2 bass 
V:1
 z3 z2[Q:1/4=90] [DEB] | [CEA]2 [B,EG] [A,_E^F]2 [C=EG] | [CFA]3 [A,F]2 [DEB] | %3
 [CEA]2 [B,EG] [A,_E^F]2 [C=EG] |[M:5/8] [CFA]-[CFA]- [CFA]3 |[M:1/8] [D^Fc] | %6
[M:3/4] [D^FB]2 [CFA] [=B,=F_A]2 [C^F=A] | [Fd]3 [=B,FG]2 [DEB] | [CEA]2 [B,EG] [CEA]2 [B,EG] | %9
[M:5/8] [A,F]-[A,F]- [A,F]3 |[M:1/8] [CFA] |[M:3/4] [CFA]2 [CFA] [CGc]2 [CGc] | %12
 [DFB]3 [CFA]2 [CFA] | [^Fd]2 [Fc] [FB]2 [FA] |[M:5/8] [GB]-[GB]- [GB]3 |[M:1/8] [EB] | %16
[M:3/4] [EB]2 [FB] [GB]2 [Ec] | B3 A2 A | c2 B [EA]2 [EG] |[M:5/8] F-F- F3 |] %20
V:2
 z3 z2 C, | C,2 C, C,2 C, | F,3 F,2 C, | C,2 C, C,2 C, |[M:5/8] F,-F,- F,3 |[M:1/8] D, | %6
[M:3/4] D,2 D, D,2 D, | [G,=B,]3 G,2 C, | C,2 C, C,2 C, |[M:5/8] F,-F,- F,3 |[M:1/8] F, | %11
[M:3/4] F,2 F, E,2 E, | D,3 F,2 F, | [D,D]2 [D,D] [D,D]2 [D,D] |[M:5/8] [G,D]-[G,D]- [G,D]3 | %15
[M:1/8] [C,C] |[M:3/4] [C,C]2 [D,C] [E,C]2 [C,C] | [F,CF]3 [F,CF]2 [^F,C_E] | %18
 [G,B,D]2 [G,B,D] [C,C]2 [C,B,] |[M:5/8] [F,A,]-[F,A,]- [F,A,]3 |] %20

